app/img/advantages-1.svg

<svg width="111" height="112" viewBox="0 0 111 112" fill="none" xmlns="http://www.w3.org/2000/svg">
<g clip-path="url(#clip0)">
<path d="M104.496 0.216797H6.50391C2.91744 0.216797 0 3.13424 0 6.7207V79.5645C0 83.1509 2.91744 86.0684 6.50391 86.0684H60.9699C62.7754 91.2393 66.61 95.4668 71.515 97.7923V109.049C71.515 109.836 71.9418 110.56 72.6286 110.943C73.3163 111.326 74.1564 111.306 74.8254 110.892L80.2148 107.552L85.6043 110.892C85.954 111.108 86.3495 111.217 86.7467 111.217C87.1092 111.217 87.4725 111.125 87.801 110.943C88.4878 110.56 88.9147 109.836 88.9147 109.049V97.7923C93.8197 95.4668 97.6543 91.2393 99.4598 86.0684H104.496C108.083 86.0684 111 83.1509 111 79.5645V6.7207C111 3.13424 108.083 0.216797 104.496 0.216797ZM84.5787 105.155L81.3564 103.159C80.6569 102.726 79.7728 102.726 79.0733 103.159L75.851 105.155V99.2735C77.2576 99.5809 78.7176 99.7452 80.2148 99.7452C81.7121 99.7452 83.1721 99.5809 84.5787 99.2735V105.155ZM80.2148 95.4093C71.3685 95.4093 64.1719 88.2126 64.1719 79.3663C64.1719 70.52 71.3685 63.3233 80.2148 63.3233C89.0612 63.3233 96.2578 70.52 96.2578 79.3663C96.2578 88.2126 89.0612 95.4093 80.2148 95.4093ZM106.664 79.5645C106.664 80.7602 105.692 81.7324 104.496 81.7324H100.456C100.545 80.9558 100.594 80.1666 100.594 79.3663C100.594 74.6679 98.9949 70.337 96.3137 66.8861C96.9912 66.6701 97.7009 66.5566 98.4258 66.5566C99.6232 66.5566 100.594 65.5861 100.594 64.3887V21.8965C100.594 20.699 99.6232 19.7285 98.4258 19.7285C94.6005 19.7285 91.4883 16.6163 91.4883 12.791C91.4883 11.5936 90.5178 10.623 89.3203 10.623H64.4022C63.2048 10.623 62.2343 11.5936 62.2343 12.791C62.2343 13.9885 63.2048 14.959 64.4022 14.959H75.8819H87.3615C88.238 19.4397 91.7771 22.9788 96.2578 23.8553V62.429C95.1459 62.6458 94.0746 63.0295 93.0745 63.5698C89.5651 60.7065 85.0868 58.9874 80.2148 58.9874C71.8317 58.9874 64.6156 64.0762 61.4907 71.3262H23.6385C22.762 66.8454 19.2229 63.3064 14.7422 62.4299V23.8553C19.2229 22.9788 22.762 19.4397 23.6385 14.959H47.0585C48.2559 14.959 49.2264 13.9885 49.2264 12.791C49.2264 11.5936 48.2559 10.623 47.0585 10.623H21.6797C20.4822 10.623 19.5117 11.5936 19.5117 12.791C19.5117 16.6163 16.3995 19.7285 12.5742 19.7285C11.3768 19.7285 10.4062 20.699 10.4062 21.8965V64.3887C10.4062 65.5861 11.3768 66.5566 12.5742 66.5566C16.3995 66.5566 19.5117 69.6689 19.5117 73.4941C19.5117 74.6916 20.4822 75.6621 21.6797 75.6621H60.1747C59.9528 76.8638 59.8359 78.1019 59.8359 79.3663C59.8359 80.1666 59.8842 80.9558 59.974 81.7324H6.50391C5.30814 81.7324 4.33594 80.7602 4.33594 79.5645V6.7207C4.33594 5.52493 5.30814 4.55273 6.50391 4.55273H104.496C105.692 4.55273 106.664 5.52493 106.664 6.7207V79.5645Z" fill="white"/>
<path d="M80.2148 68.5265C74.2377 68.5265 69.375 73.3892 69.375 79.3663C69.375 85.3435 74.2377 90.2062 80.2148 90.2062C86.192 90.2062 91.0547 85.3435 91.0547 79.3663C91.0547 73.3892 86.192 68.5265 80.2148 68.5265ZM80.2148 85.8702C76.6284 85.8702 73.7109 82.9528 73.7109 79.3663C73.7109 75.7799 76.6284 72.8624 80.2148 72.8624C83.8013 72.8624 86.7188 75.7799 86.7188 79.3663C86.7188 82.9528 83.8013 85.8702 80.2148 85.8702Z" fill="white"/>
<path d="M44.8906 33.4951C44.8906 39.4723 49.7533 44.335 55.7305 44.335C61.7076 44.335 66.5703 39.4723 66.5703 33.4951C66.5703 27.518 61.7076 22.6553 55.7305 22.6553C49.7533 22.6553 44.8906 27.518 44.8906 33.4951ZM62.2344 33.4951C62.2344 37.0816 59.3169 39.999 55.7305 39.999C52.144 39.999 49.2266 37.0816 49.2266 33.4951C49.2266 29.9087 52.144 26.9912 55.7305 26.9912C59.3169 26.9912 62.2344 29.9087 62.2344 33.4951Z" fill="white"/>
<path d="M34.6206 51.9229C34.6206 53.1203 35.5911 54.0908 36.7886 54.0908H74.2114C75.4089 54.0908 76.3794 53.1203 76.3794 51.9229C76.3794 50.7254 75.4089 49.7549 74.2114 49.7549H36.7886C35.5911 49.7549 34.6206 50.7254 34.6206 51.9229Z" fill="white"/>
<path d="M62.0039 59.2939H48.9961C47.7986 59.2939 46.8281 60.2644 46.8281 61.4619C46.8281 62.6594 47.7986 63.6299 48.9961 63.6299H62.0039C63.2014 63.6299 64.1719 62.6594 64.1719 61.4619C64.1719 60.2644 63.2014 59.2939 62.0039 59.2939Z" fill="white"/>
<path d="M11.0414 75.027C11.4445 75.4301 12.0043 75.6621 12.5742 75.6621C13.1442 75.6621 13.7039 75.4301 14.107 75.027C14.5101 74.6239 14.7422 74.0641 14.7422 73.4941C14.7422 72.9242 14.5101 72.3644 14.107 71.9613C13.7039 71.5582 13.1442 71.3262 12.5742 71.3262C12.0043 71.3262 11.4445 71.5582 11.0414 71.9613C10.6383 72.3644 10.4062 72.9242 10.4062 73.4941C10.4062 74.0641 10.6383 74.6239 11.0414 75.027Z" fill="white"/>
<path d="M12.5742 10.623C12.0043 10.623 11.4445 10.8551 11.0414 11.2582C10.6383 11.6613 10.4062 12.2211 10.4062 12.791C10.4062 13.361 10.6383 13.9207 11.0414 14.3238C11.4445 14.7269 12.0043 14.959 12.5742 14.959C13.1442 14.959 13.7039 14.7269 14.107 14.3238C14.5101 13.9207 14.7422 13.361 14.7422 12.791C14.7422 12.2211 14.5101 11.6613 14.107 11.2582C13.7039 10.8551 13.1442 10.623 12.5742 10.623Z" fill="white"/>
<path d="M98.4258 10.623C97.8558 10.623 97.2961 10.8551 96.893 11.2582C96.4899 11.6613 96.2578 12.2211 96.2578 12.791C96.2578 13.361 96.4899 13.9207 96.893 14.3238C97.2961 14.7269 97.8558 14.959 98.4258 14.959C98.9957 14.959 99.5555 14.7269 99.9586 14.3238C100.362 13.9207 100.594 13.361 100.594 12.791C100.594 12.2211 100.362 11.6613 99.9586 11.2582C99.5555 10.8551 98.9957 10.623 98.4258 10.623Z" fill="white"/>
<path d="M55.7295 14.959C56.302 14.959 56.8592 14.7269 57.2623 14.3238C57.668 13.9207 57.8975 13.361 57.8975 12.791C57.8975 12.2211 57.668 11.6613 57.2623 11.2582C56.8592 10.8551 56.3003 10.623 55.7295 10.623C55.1596 10.623 54.6006 10.8551 54.1967 11.2582C53.7936 11.6613 53.5615 12.2211 53.5615 12.791C53.5615 13.361 53.7936 13.9207 54.1967 14.3238C54.6006 14.7269 55.1596 14.959 55.7295 14.959Z" fill="white"/>
</g>
<defs>
<clipPath id="clip0">
<rect width="111" height="111" fill="white" transform="translate(0 0.216797)"/>
</clipPath>
</defs>
</svg>

<svg width="111" height="112" viewBox="0 0 111 112" fill="none" xmlns="http://www.w3.org/2000/svg"><g clip-path="url(#a)" fill="#fff"><path d="M104.496.217H6.504A6.511 6.511 0 0 0 0 6.72v72.844a6.511 6.511 0 0 0 6.504 6.503H60.97a20.489 20.489 0 0 0 10.545 11.724v11.257a2.169 2.169 0 0 0 3.31 1.843l5.39-3.34 5.39 3.34a2.171 2.171 0 0 0 2.196.051 2.169 2.169 0 0 0 1.114-1.894V97.792A20.489 20.489 0 0 0 99.46 86.068h5.036A6.51 6.51 0 0 0 111 79.564V6.721a6.51 6.51 0 0 0-6.504-6.504zM84.579 105.155l-3.223-1.996a2.169 2.169 0 0 0-2.283 0l-3.222 1.996v-5.882a20.42 20.42 0 0 0 8.728 0v5.882zm-4.364-9.746c-8.847 0-16.043-7.196-16.043-16.043 0-8.846 7.197-16.043 16.043-16.043s16.043 7.197 16.043 16.043c0 8.847-7.197 16.043-16.043 16.043zm26.449-15.845a2.17 2.17 0 0 1-2.168 2.168h-4.04a20.75 20.75 0 0 0 .138-2.366c0-4.698-1.6-9.029-4.28-12.48a6.942 6.942 0 0 1 2.112-.33c1.197 0 2.168-.97 2.168-2.167V21.897c0-1.198-.97-2.168-2.168-2.168a6.945 6.945 0 0 1-6.938-6.938c0-1.197-.97-2.168-2.168-2.168H64.402a2.168 2.168 0 1 0 0 4.336h22.96a11.307 11.307 0 0 0 8.896 8.896V62.43a11.21 11.21 0 0 0-3.183 1.14 20.279 20.279 0 0 0-12.86-4.582c-8.383 0-15.6 5.09-18.724 12.34H23.639a11.307 11.307 0 0 0-8.897-8.897V23.855a11.307 11.307 0 0 0 8.896-8.896h23.42a2.168 2.168 0 1 0 0-4.336H21.68c-1.198 0-2.168.97-2.168 2.168a6.945 6.945 0 0 1-6.938 6.938c-1.197 0-2.168.97-2.168 2.168v42.492c0 1.197.97 2.168 2.168 2.168a6.945 6.945 0 0 1 6.938 6.937c0 1.198.97 2.168 2.168 2.168h38.495a20.386 20.386 0 0 0-.201 6.07H6.504a2.17 2.17 0 0 1-2.168-2.168V6.721a2.17 2.17 0 0 1 2.168-2.168h97.992a2.17 2.17 0 0 1 2.168 2.168v72.844z"/><path d="M80.215 68.526c-5.977 0-10.84 4.863-10.84 10.84 0 5.978 4.863 10.84 10.84 10.84 5.977 0 10.84-4.862 10.84-10.84 0-5.977-4.863-10.84-10.84-10.84zm0 17.344a6.511 6.511 0 0 1-6.504-6.504 6.511 6.511 0 0 1 6.504-6.504 6.511 6.511 0 0 1 6.504 6.504 6.511 6.511 0 0 1-6.504 6.504zM44.89 33.495c0 5.977 4.863 10.84 10.84 10.84 5.978 0 10.84-4.863 10.84-10.84 0-5.977-4.862-10.84-10.84-10.84-5.977 0-10.84 4.863-10.84 10.84zm17.344 0A6.511 6.511 0 0 1 55.73 40a6.511 6.511 0 0 1-6.503-6.504 6.511 6.511 0 0 1 6.504-6.504 6.511 6.511 0 0 1 6.503 6.504zM34.62 51.923c0 1.197.971 2.168 2.169 2.168H74.21a2.168 2.168 0 1 0 0-4.336H36.79c-1.198 0-2.168.97-2.168 2.168zm27.384 7.371H48.996a2.168 2.168 0 1 0 0 4.336h13.008a2.168 2.168 0 1 0 0-4.336zM11.041 75.027c.403.403.963.635 1.533.635s1.13-.232 1.533-.635.635-.963.635-1.533-.232-1.13-.635-1.533a2.185 2.185 0 0 0-1.533-.635c-.57 0-1.13.232-1.533.635a2.185 2.185 0 0 0-.635 1.533c0 .57.232 1.13.635 1.533zm1.533-64.404c-.57 0-1.13.232-1.533.635a2.185 2.185 0 0 0-.635 1.533c0 .57.232 1.13.635 1.533s.963.635 1.533.635 1.13-.232 1.533-.635.635-.963.635-1.533-.232-1.13-.635-1.533a2.185 2.185 0 0 0-1.533-.635zm85.852 0c-.57 0-1.13.232-1.533.635a2.185 2.185 0 0 0-.635 1.533c0 .57.232 1.13.635 1.533s.963.635 1.533.635 1.13-.232 1.533-.635.635-.963.635-1.533-.232-1.13-.635-1.533a2.185 2.185 0 0 0-1.533-.635zM55.73 14.959a2.18 2.18 0 0 0 1.532-.635c.406-.403.636-.963.636-1.533s-.23-1.13-.636-1.533a2.184 2.184 0 0 0-1.532-.635c-.57 0-1.13.232-1.533.635a2.185 2.185 0 0 0-.636 1.533c0 .57.233 1.13.636 1.533.404.403.963.635 1.532.635z"/></g><defs><clipPath id="a"><path fill="#fff" transform="translate(0 .217)" d="M0 0h111v111H0z"/></clipPath></defs></svg>
